build/img/svg/м².svg

<svg width="17" height="12" viewBox="0 0 17 12" fill="none" xmlns="http://www.w3.org/2000/svg">
<path d="M4.99219 9.71875L7.50781 3.54688H9.14062L5.63281 12H4.35156L0.851562 3.54688H2.48438L4.99219 9.71875ZM2 3.54688V12H0.117188V3.54688H2ZM7.98438 12V3.54688H9.875V12H7.98438ZM16.3906 5.65625V6.78906H11.6328V5.83594L13.875 3.76562C14.0885 3.57292 14.2578 3.39583 14.3828 3.23438C14.513 3.06771 14.6068 2.91667 14.6641 2.78125C14.7266 2.64583 14.7578 2.53125 14.7578 2.4375C14.7578 2.21354 14.6849 2.03125 14.5391 1.89062C14.3932 1.74479 14.1823 1.67188 13.9062 1.67188C13.5729 1.67188 13.3229 1.76562 13.1562 1.95312C12.9948 2.13542 12.9141 2.35938 12.9141 2.625H11.4922C11.4922 2.24479 11.5859 1.89583 11.7734 1.57812C11.9661 1.26042 12.237 1.00781 12.5859 0.820312C12.9401 0.632812 13.362 0.539062 13.8516 0.539062C14.3464 0.539062 14.7656 0.614583 15.1094 0.765625C15.4583 0.916667 15.724 1.13281 15.9062 1.41406C16.0938 1.69531 16.1875 2.03385 16.1875 2.42969C16.1875 2.71615 16.125 2.98177 16 3.22656C15.875 3.46615 15.6927 3.70573 15.4531 3.94531C15.2188 4.1849 14.9271 4.44792 14.5781 4.73438L13.4766 5.65625H16.3906Z" fill="#959595"/>
</svg>

<svg width="17" height="12" fill="none" xmlns="http://www.w3.org/2000/svg"><path d="M4.992 9.719l2.516-6.172H9.14L5.633 12H4.352l-3.5-8.453h1.632l2.508 6.172zM2 3.547V12H.117V3.547H2zM7.984 12V3.547h1.891V12h-1.89zm8.407-6.344V6.79h-4.758v-.953l2.242-2.07c.213-.193.383-.37.508-.532.13-.166.224-.317.281-.453a.855.855 0 00.094-.344.726.726 0 00-.219-.546c-.146-.146-.357-.22-.633-.22-.333 0-.583.095-.75.282a.977.977 0 00-.242.672h-1.422c0-.38.094-.73.281-1.047.193-.318.464-.57.813-.758.354-.187.776-.28 1.266-.28.494 0 .914.075 1.257.226.35.15.615.367.797.648.188.281.281.62.281 1.016 0 .286-.062.552-.187.797-.125.24-.307.479-.547.718-.234.24-.526.503-.875.79l-1.101.921h2.914z" fill="#959595"/></svg>
